img/logos/rubygems.svg

<?xml version="1.0" encoding="UTF-8" standalone="no"?>
<svg width="256px" height="293px" viewBox="0 0 256 293" version="1.1" xmlns="http://www.w3.org/2000/svg" xmlns:xlink="http://www.w3.org/1999/xlink" preserveAspectRatio="xMinYMin meet">
	<g fill="#D34231">
		<path d="M76.7478977,97.4337652 L76.585237,97.2711045 L40.4745594,133.381782 L128.148682,220.893244 L164.25936,184.945227 L215.822805,133.381782 L179.712127,97.2711045 L179.712127,97.1084438 L76.585237,97.1084438 L76.7478977,97.4337652 Z"></path>
		<path d="M127.823361,0.975964259 L0.1347034,74.1732837 L0.1347034,220.567923 L127.823361,293.765242 L255.512018,220.567923 L255.512018,74.1732837 L127.823361,0.975964259 L127.823361,0.975964259 Z M231.112911,206.579102 L127.823361,266.112921 L24.5338099,206.579102 L24.5338099,87.8367833 L127.823361,28.3029635 L231.112911,87.8367833 L231.112911,206.579102 L231.112911,206.579102 Z"></path>
	</g>
</svg>

<svg width="256" height="293" viewBox="0 0 256 293" xmlns="http://www.w3.org/2000/svg" preserveAspectRatio="xMinYMin meet"><g fill="#D34231"><path d="M76.748 97.434l-.163-.163-36.11 36.112 87.674 87.51 36.11-35.947 51.563-51.563-36.11-36.11v-.164H76.584l.163.326z"/><path d="M127.823.976L.135 74.173v146.395l127.688 73.197 127.69-73.197V74.173L127.822.976zm103.29 205.603l-103.29 59.533-103.29-59.534V87.836l103.29-59.534 103.29 59.534V206.58z"/></g></svg>
